icons/folder-theme-open.svg

<svg xmlns="http://www.w3.org/2000/svg" viewBox="0 0 32 32">
  <path d="M28.96692,12H9.44152a2,2,0,0,0-1.89737,1.36754L4,24V10H28a2,2,0,0,0-2-2H15.1241a2,2,0,0,1-1.28038-.46357L12.5563,6.46357A2,2,0,0,0,11.27592,6H4A2,2,0,0,0,2,8V24a2,2,0,0,0,2,2H26l4.80523-11.21213A2,2,0,0,0,28.96692,12Z" style="fill: #1e88e5"/>
  <path d="M21.99847,10C16,10,12,14,12,20A10.00131,10.00131,0,0,0,22,30c.91986.00085,1.99915,0,2-2,.00018-.43585-.56885-.78528-.9635-1.18A2.36758,2.36758,0,0,1,22,25c0-1,1-1,2-1h4c4,0,4-4,4-6C32,14,28,10,21.99847,10ZM16,20a2,2,0,1,1,2-2A2,2,0,0,1,16,20Zm6-4a2,2,0,1,1,2-2A2,2,0,0,1,22,16Zm6,4a2,2,0,1,1,2-2A2,2,0,0,1,28,20Z" style="fill: #bbdefb;fill-rule: evenodd"/>
</svg>

<svg xmlns="http://www.w3.org/2000/svg" viewBox="0 0 32 32"><path fill="#1e88e5" d="M28.967 12H9.442a2 2 0 0 0-1.898 1.368L4 24V10h24a2 2 0 0 0-2-2H15.124a2 2 0 0 1-1.28-.464l-1.288-1.072A2 2 0 0 0 11.276 6H4a2 2 0 0 0-2 2v16a2 2 0 0 0 2 2h22l4.805-11.212A2 2 0 0 0 28.967 12Z"/><path fill="#bbdefb" fill-rule="evenodd" d="M21.998 10C16 10 12 14 12 20a10.001 10.001 0 0 0 10 10c.92 0 2 0 2-2 0-.436-.569-.785-.964-1.18A2.368 2.368 0 0 1 22 25c0-1 1-1 2-1h4c4 0 4-4 4-6 0-4-4-8-10.002-8ZM16 20a2 2 0 1 1 2-2 2 2 0 0 1-2 2Zm6-4a2 2 0 1 1 2-2 2 2 0 0 1-2 2Zm6 4a2 2 0 1 1 2-2 2 2 0 0 1-2 2Z"/></svg>
